X: 33199
T: Promotion, The
R: jig
M: 6/8
K: Fmajor
|:~F2F dFc|FBA GFE|~F2F dFc|Ace fcA|
~F2F dFc|FBA GFE|1 FED CDE|FGA BAG:|2 Fff gfe|f3fgf||
|:ecc gcc|acg f2g|ecc bge|f3fgf|
ecc gcc|bca g2f|eba gfe|1 f3fgf:|2 fcA F2E||

